resources/assets/img/underline.svg

<svg xmlns="http://www.w3.org/2000/svg" viewBox="0 0 312 24"><path fill="#c1272d" d="M0 0h24v24"/><path fill="#0071bc" d="M24 0h24v24h-24zm0 24h-24v-24"/><path fill="#f15a24" d="M48 0v24h-24"/><path fill="#2e3192" d="M72 24h-24v-24"/><path fill="#f00" d="M96 24h-24v-24m-24 0h24v24"/><path fill="#00a99d" d="M72 0h24v24"/><path fill="#f00" d="M96 24h24v-24"/><path fill="#00a99d" d="M144 24h-24v-24m-24 24v-24h24"/><path fill="#ed1e79" d="M120 0h24v24"/><path fill="#f00" d="M168 0v24h-24"/><path fill="#ed1e79" d="M192 0v24h-24"/><path fill="#754c24" d="M216 24h-24v-24"/><path fill="#ed1e79" d="M216 24v-24h24"/><path fill="#ed1c24" d="M264 24h-24v-24"/><path fill="#8c6239" d="M264 24v-24h24"/><path fill="#d4145a" d="M288 24v-24h24"/><path fill="#39b54a" d="M144 24v-24h24"/><path fill="#f0f" d="M168 24v-24h24"/><path fill="#f00" d="M192 0h24v24"/><path fill="#d4145a" d="M240 0v24h-24"/><path fill="#f15a24" d="M240 0h24v24"/><path fill="#ff0" d="M288 0v24h-24"/><path fill="#f7931e" d="M312 0v24h-24"/></svg>

<svg xmlns="http://www.w3.org/2000/svg" viewBox="0 0 312 24"><path fill="#c1272d" d="M0 0h24v24"/><path fill="#0071bc" d="M24 0h24v24H24zm0 24H0V0"/><path fill="#f15a24" d="M48 0v24H24"/><path fill="#2e3192" d="M72 24H48V0"/><path fill="red" d="M96 24H72V0M48 0h24v24"/><path fill="#00a99d" d="M72 0h24v24"/><path fill="red" d="M96 24h24V0"/><path fill="#00a99d" d="M144 24h-24V0M96 24V0h24"/><path fill="#ed1e79" d="M120 0h24v24"/><path fill="red" d="M168 0v24h-24"/><path fill="#ed1e79" d="M192 0v24h-24"/><path fill="#754c24" d="M216 24h-24V0"/><path fill="#ed1e79" d="M216 24V0h24"/><path fill="#ed1c24" d="M264 24h-24V0"/><path fill="#8c6239" d="M264 24V0h24"/><path fill="#d4145a" d="M288 24V0h24"/><path fill="#39b54a" d="M144 24V0h24"/><path fill="#f0f" d="M168 24V0h24"/><path fill="red" d="M192 0h24v24"/><path fill="#d4145a" d="M240 0v24h-24"/><path fill="#f15a24" d="M240 0h24v24"/><path fill="#ff0" d="M288 0v24h-24"/><path fill="#f7931e" d="M312 0v24h-24"/></svg>
